public/images/Mechatrucker/bolt-solid.svg

<svg width="448" height="512" viewBox="0 0 448 512" fill="none" xmlns="http://www.w3.org/2000/svg">
<g clip-path="url(#clip0_57_4)">
<path d="M349.4 44.6C355.3 30.9 350.9 14.9 338.8 6.10001C326.7 -2.69999 310.2 -1.89999 298.9 7.90001L42.8999 231.9C32.8999 240.7 29.2999 254.8 33.9999 267.2C38.6999 279.6 50.6999 288 63.9999 288H175.5L98.5999 467.4C92.6999 481.1 97.0999 497.1 109.2 505.9C121.3 514.7 137.8 513.9 149.1 504.1L405.1 280.1C415.1 271.3 418.7 257.2 414 244.8C409.3 232.4 397.4 224.1 384 224.1H272.5L349.4 44.6Z" fill="#242124"/>
</g>
<defs>
<clipPath id="clip0_57_4">
<rect width="448" height="512" fill="white"/>
</clipPath>
</defs>
</svg>

<svg xmlns="http://www.w3.org/2000/svg" viewBox="0 0 448 512"><!--!Font Awesome Free 6.7.2 by @fontawesome - https://fontawesome.com License - https://fontawesome.com/license/free Copyright 2025 Fonticons, Inc.--><path d="M349.4 44.6c5.9-13.7 1.5-29.7-10.6-38.5s-28.6-8-39.9 1.8l-256 224c-10 8.8-13.6 22.9-8.9 35.3S50.7 288 64 288l111.5 0L98.6 467.4c-5.9 13.7-1.5 29.7 10.6 38.5s28.6 8 39.9-1.8l256-224c10-8.8 13.6-22.9 8.9-35.3s-16.6-20.7-30-20.7l-111.5 0L349.4 44.6z"/></svg>
